lib/preview/nrk-logo-preview-nrk-sami-radio-title-below-on-dark.svg

<svg width="84" height="31" viewBox="0 0 84 31" fill="none" xmlns="http://www.w3.org/2000/svg">
<path d="M0 12.9966V0.997672H3.93719V12.9966H0ZM9.29381 2.90736L11.5581 12.9966H7.24917L4.54549 0.997672H6.96218C7.51635 0.99048 8.05406 1.18583 8.4745 1.54697C8.89562 1.89296 9.18495 2.37328 9.29381 2.90736ZM12.1495 12.9966V0.997672H16.0867V12.9966H12.1495ZM19.0605 5.56068C18.6362 5.56482 18.2188 5.45381 17.8525 5.23955C17.4912 5.0307 17.1911 4.73054 16.9823 4.36918C16.7678 4.00291 16.6568 3.58534 16.661 3.1609C16.6561 2.73904 16.7672 2.32396 16.9823 1.96101C17.1933 1.60357 17.4931 1.30668 17.8525 1.0991C18.2189 0.885084 18.6362 0.774097 19.0605 0.777966C19.4822 0.773424 19.8971 0.884511 20.2602 1.0991C20.616 1.30849 20.9127 1.60514 21.122 1.96101C21.3368 2.32406 21.4479 2.73908 21.4433 3.1609C21.4473 3.58531 21.3363 4.00281 21.122 4.36918C20.9149 4.72896 20.6179 5.02886 20.2602 5.23955C19.8971 5.45456 19.4819 5.56567 19.0599 5.56068H19.0605ZM22.0516 12.9966V0.997672H25.9892V12.9966H22.0516ZM30.9737 7.55482C30.9848 7.56646 31.0693 7.70447 31.2272 7.96885C31.3851 8.23324 31.5907 8.57127 31.8439 8.98287C32.0974 9.39429 32.3649 9.83084 32.6463 10.2926C32.9278 10.7543 33.1926 11.1909 33.4408 11.6024C33.6881 12.0138 33.9697 12.4785 34.2857 12.9966H29.9598C29.6893 12.5572 29.4441 12.16 29.2245 11.8051C29.0048 11.4503 28.7713 11.0672 28.5238 10.6559C28.2758 10.2451 28.0306 9.84512 27.7882 9.45605C27.5458 9.06698 27.3375 8.7262 27.1633 8.43364C26.9883 8.1409 26.8671 7.94371 26.7997 7.84212C26.6325 7.59003 26.5336 7.29888 26.5127 6.99713C26.5294 6.70752 26.6226 6.42756 26.7828 6.18569C26.8504 6.07303 26.9743 5.87301 27.1545 5.58571C27.3348 5.29842 27.546 4.95764 27.7882 4.56331C28.0304 4.16898 28.2756 3.76619 28.5238 3.35496C28.772 2.94373 29.0056 2.55782 29.2245 2.19729C29.4445 1.83713 29.6897 1.43717 29.9598 0.997397H34.2857L30.9396 6.45608C30.8361 6.61815 30.7777 6.80493 30.7706 6.99713C30.7818 7.1989 30.8522 7.3929 30.9731 7.55482H30.9737Z" fill="white"/>
<path d="M8.03172 25.368C8.17149 25.7878 8.23817 26.2285 8.22886 26.6709C8.24819 27.2648 8.12782 27.8549 7.87743 28.3937C7.65013 28.8487 7.30725 29.2359 6.88314 29.5166C6.4287 29.8133 5.92291 30.0226 5.39172 30.1337C4.79183 30.2629 4.17962 30.3261 3.566 30.3223C3.29172 30.3223 3.02029 30.3109 2.75171 30.288C2.48314 30.2652 2.21457 30.2337 1.946 30.1937C1.66601 30.1514 1.38847 30.0942 1.11457 30.0223C0.812816 29.9432 0.515287 29.8488 0.223143 29.7395L0 28.0423C0.274286 28.1452 0.562953 28.2453 0.866 28.3426C1.16905 28.4399 1.48038 28.5227 1.8 28.5909C2.11962 28.6595 2.43962 28.7137 2.76 28.7537C3.06702 28.7931 3.37619 28.8131 3.68572 28.8137C4.00419 28.8165 4.32236 28.7936 4.63714 28.7452C4.89494 28.7063 5.14598 28.6312 5.38286 28.5223C5.59246 28.425 5.77934 28.2849 5.93143 28.1109C6.08291 27.9346 6.19928 27.7309 6.27429 27.5109C6.35862 27.2567 6.39929 26.9901 6.39457 26.7223C6.4007 26.4706 6.357 26.2202 6.266 25.9855C6.18761 25.7905 6.06769 25.615 5.91457 25.4712C5.75305 25.3255 5.57113 25.2043 5.37457 25.1112C5.14566 25.0019 4.90761 24.913 4.66314 24.8455C4.4001 24.7716 4.11438 24.7001 3.806 24.6312C3.42848 24.5516 3.05991 24.4544 2.70029 24.3397C2.35483 24.2316 2.01931 24.0939 1.69743 23.9283C1.39378 23.772 1.1162 23.5696 0.874572 23.3283C0.6303 23.0819 0.44049 22.787 0.317429 22.4626C0.177455 22.0754 0.110607 21.6656 0.120286 21.254C0.106957 20.7223 0.215438 20.1945 0.437429 19.7112C0.645354 19.281 0.957593 18.9096 1.34571 18.6309C1.76702 18.3328 2.24115 18.1176 2.74286 17.9966C3.33195 17.8534 3.93663 17.7843 4.54286 17.7909C4.84 17.7909 5.13133 17.8052 5.41686 17.8337C5.69901 17.8619 5.97949 17.9048 6.25714 17.9623C6.53143 18.0195 6.80276 18.0881 7.07114 18.1683C7.33488 18.2463 7.59045 18.3497 7.83429 18.4769L7.59429 19.9855C7.37749 19.8662 7.15085 19.7659 6.91686 19.6855C6.66711 19.5987 6.41237 19.5272 6.154 19.4712C5.88807 19.4136 5.61919 19.3707 5.34857 19.3426C5.08091 19.3145 4.81199 19.3002 4.54286 19.2997C4.2475 19.298 3.95241 19.3181 3.66 19.3597C3.41409 19.3932 3.17441 19.4625 2.94857 19.5655C2.75123 19.6571 2.56911 19.7786 2.40857 19.9255C2.25365 20.0694 2.13599 20.2488 2.06571 20.4483C1.98795 20.6743 1.95024 20.9122 1.95429 21.1512C1.94864 21.3819 1.98644 21.6116 2.06571 21.8283C2.13695 22.0127 2.25163 22.1772 2.4 22.3077C2.55768 22.4455 2.73363 22.5609 2.92286 22.6506C3.14298 22.7551 3.3726 22.8384 3.60857 22.8992C3.86572 22.9677 4.14276 23.0363 4.43972 23.1049C4.82829 23.1851 5.20543 23.2822 5.57114 23.3963C5.92808 23.5071 6.2751 23.6476 6.60857 23.8163C6.92657 23.9766 7.21613 24.188 7.46572 24.442C7.71914 24.706 7.91216 25.0218 8.03143 25.3677M17.9657 29.0366C18.065 29.0235 18.1627 29.0005 18.2574 28.968L18.0689 30.1166C18.0046 30.1415 17.9386 30.1616 17.8714 30.1766C17.7969 30.1937 17.7143 30.2135 17.6229 30.2366C17.5302 30.2594 17.4356 30.2737 17.3403 30.2795C17.2429 30.2849 17.1429 30.288 17.04 30.288C16.7055 30.2939 16.3733 30.2327 16.0629 30.108C15.782 29.9924 15.5471 29.7876 15.3943 29.5252C15.3047 29.3684 15.242 29.1978 15.2086 29.0203C15.1027 29.146 14.9902 29.2659 14.8714 29.3795C14.559 29.6754 14.1924 29.9082 13.7917 30.0652C13.3281 30.235 12.8368 30.3164 12.3431 30.3052C11.8162 30.3236 11.2935 30.2055 10.8257 29.9623C10.4423 29.7563 10.1268 29.4437 9.91714 29.0623C9.71724 28.6911 9.61416 28.2754 9.61743 27.8537C9.61514 27.4044 9.74957 26.9649 10.0029 26.5937C10.3017 26.1768 10.7075 25.8481 11.1774 25.6423C11.8054 25.367 12.4806 25.2157 13.166 25.1966L15.1697 25.0609L15.1714 24.6309C15.1763 24.339 15.1417 24.0478 15.0686 23.7652C15.0091 23.536 14.8909 23.3263 14.7257 23.1566C14.5399 22.9825 14.3129 22.8586 14.066 22.7966C13.7273 22.7097 13.3784 22.6693 13.0289 22.6766C12.8003 22.6766 12.5688 22.6852 12.3343 22.7023C12.0955 22.7201 11.858 22.7515 11.6229 22.7966C11.3829 22.8427 11.1344 22.8998 10.8774 22.968C10.6205 23.0362 10.349 23.1219 10.0629 23.2252L10.2689 21.768C10.5628 21.6509 10.8632 21.5508 11.1686 21.468C11.498 21.3793 11.8332 21.3134 12.1717 21.2709C12.5298 21.2249 12.8904 21.202 13.2514 21.2023C13.7067 21.1974 14.161 21.2434 14.606 21.3395C14.9698 21.417 15.3195 21.55 15.6429 21.7337C15.9214 21.8936 16.1637 22.1095 16.3546 22.3677C16.5432 22.6321 16.6824 22.9284 16.7657 23.2423C16.8606 23.6002 16.9068 23.9692 16.9031 24.3395L16.8686 27.8709C16.8319 28.1862 16.8982 28.5049 17.0574 28.7795C17.1385 28.8756 17.2416 28.9508 17.3579 28.9986C17.4743 29.0463 17.6005 29.0652 17.7257 29.0537C17.806 29.0529 17.8861 29.0472 17.9657 29.0366ZM15.1563 28.0123L15.164 26.3109H13.6631C13.2133 26.2987 12.7637 26.3448 12.3257 26.448C12.0454 26.5082 11.7925 26.6588 11.606 26.8766C11.4447 27.1132 11.3662 27.3965 11.3829 27.6823C11.3761 27.9196 11.4354 28.154 11.5543 28.3595C11.6743 28.5533 11.8506 28.7058 12.0597 28.7966C12.3169 28.9062 12.5948 28.9589 12.8743 28.9509C13.1188 28.9515 13.3628 28.9286 13.6029 28.8823C13.8345 28.8375 14.0593 28.7626 14.2714 28.6595C14.4844 28.5557 14.6856 28.4292 14.8714 28.2823C14.9743 28.2007 15.0699 28.1104 15.1571 28.0123M15.9603 17.1223H14.1086L12.6514 20.1909H13.9886L15.9603 17.1223ZM31.7317 21.5623C31.2642 21.3085 30.7374 21.1842 30.2057 21.2023C29.7444 21.2011 29.2864 21.2793 28.8517 21.4337C28.4101 21.5918 27.9942 21.8141 27.6174 22.0935C27.4038 22.2516 27.2006 22.4234 27.0091 22.6077C26.8335 22.1786 26.5237 21.8178 26.126 21.5792C25.6529 21.3242 25.1203 21.1999 24.5831 21.2192C24.1248 21.2193 23.6698 21.2974 23.2377 21.4503C22.7941 21.6064 22.3755 21.8259 21.9949 22.102C21.8714 22.1909 21.7523 22.2872 21.6346 22.3877V21.2195L19.8863 21.4766V30.1337H21.6346V23.6132C21.8406 23.4783 22.0554 23.3573 22.2774 23.2509C22.5495 23.1223 22.8339 23.0218 23.1263 22.9509C23.3954 22.8844 23.6714 22.8498 23.9486 22.848C24.2032 22.8404 24.4567 22.8841 24.694 22.9766C24.8906 23.0598 25.0641 23.1892 25.2 23.3537C25.3489 23.5448 25.4515 23.7678 25.4997 24.0052C25.5667 24.312 25.5984 24.6254 25.5943 24.9395V30.1337H27.3429V24.5795C27.3441 24.2515 27.3219 23.9239 27.2766 23.5992C27.4748 23.4691 27.6801 23.3499 27.8914 23.2423C28.1587 23.1077 28.4406 23.0042 28.7314 22.9337C29.0063 22.8665 29.2882 22.8319 29.5711 22.8309C29.823 22.8248 30.0736 22.8685 30.3086 22.9595C30.5084 23.0409 30.6851 23.1705 30.8229 23.3366C30.972 23.5276 31.0747 23.7506 31.1229 23.988C31.1897 24.2949 31.2213 24.6083 31.2172 24.9223V30.1337H32.9657V24.5623C32.9879 23.914 32.8831 23.2676 32.6572 22.6595C32.4795 22.2009 32.1538 21.8148 31.7317 21.5623ZM37.0543 17.628C36.8764 17.5193 36.6714 17.4628 36.4629 17.4652C36.2517 17.4635 36.0442 17.5199 35.8629 17.628C35.684 17.7326 35.5338 17.8798 35.4257 18.0566C35.317 18.2345 35.2605 18.4395 35.2629 18.648C35.2624 18.8573 35.3178 19.063 35.4232 19.2438C35.5287 19.4246 35.6804 19.574 35.8629 19.6766C36.0459 19.7797 36.2528 19.8329 36.4629 19.8309C36.6703 19.8335 36.8746 19.7802 37.0543 19.6766C37.2308 19.5747 37.376 19.4265 37.4743 19.248C37.5774 19.065 37.6306 18.8581 37.6286 18.648C37.6311 18.4406 37.5778 18.2364 37.4743 18.0566C37.3726 17.8807 37.2282 17.7332 37.0543 17.628ZM35.5543 30.1337H37.3029V21.2195L35.5543 21.4766V30.1337ZM47.6057 21.3306C47.2851 21.4167 46.9788 21.5496 46.6969 21.7249C46.4045 21.9074 46.1343 22.1232 45.8914 22.3677C45.8509 22.4083 45.8114 22.4535 45.7712 22.4963V21.2195L44.0229 21.4766V30.1337H45.7714V23.6572C45.9014 23.5664 46.0358 23.4823 46.1743 23.4052C46.3457 23.3106 46.5233 23.2276 46.7057 23.1566C46.8827 23.088 47.0627 23.028 47.2457 22.9766C47.434 22.9242 47.6261 22.8869 47.8203 22.8652C48.028 22.8424 48.2371 22.8366 48.4457 22.848L48.6514 21.2363C48.3002 21.2113 47.9472 21.2432 47.606 21.3306M57.6857 29.0366C57.7848 29.0235 57.8824 29.0005 57.9769 28.968L57.7883 30.1166C57.7243 30.1416 57.6585 30.1616 57.5914 30.1766C57.5169 30.1937 57.434 30.2135 57.3429 30.2366C57.25 30.2594 57.1552 30.2737 57.0597 30.2795C56.9629 30.2849 56.8629 30.288 56.76 30.288C56.4255 30.294 56.0933 30.2328 55.7829 30.108C55.502 29.9925 55.267 29.7877 55.1143 29.5252C55.0246 29.3684 54.9618 29.1978 54.9286 29.0203C54.8226 29.1458 54.71 29.2657 54.5914 29.3795C54.2789 29.6753 53.9122 29.9082 53.5114 30.0652C53.0477 30.235 52.5563 30.3164 52.0626 30.3052C51.5359 30.3235 51.0133 30.2054 50.5457 29.9623C50.1623 29.7564 49.8467 29.4438 49.6372 29.0623C49.4371 28.6911 49.3338 28.2754 49.3369 27.8537C49.3345 27.4043 49.4692 26.9648 49.7229 26.5937C50.0214 26.1766 50.4271 25.8478 50.8972 25.6423C51.5251 25.367 52.2003 25.2157 52.8857 25.1966L54.8894 25.0609L54.8914 24.6309C54.8962 24.339 54.8615 24.0478 54.7883 23.7652C54.7291 23.5359 54.6109 23.3261 54.4454 23.1566C54.2595 22.9825 54.0322 22.8586 53.7852 22.7966C53.4466 22.7096 53.0978 22.6692 52.7483 22.6766C52.5197 22.6766 52.2883 22.6852 52.054 22.7023C51.8153 22.72 51.5777 22.7515 51.3426 22.7966C51.1026 22.8427 50.8539 22.8998 50.5966 22.968C50.3392 23.0362 50.0679 23.1219 49.7826 23.2252L49.988 21.768C50.2821 21.6509 50.5827 21.5508 50.8883 21.468C51.2176 21.3793 51.5527 21.3134 51.8912 21.2709C52.2493 21.2249 52.6101 21.202 52.9712 21.2023C53.4263 21.1974 53.8805 21.2434 54.3254 21.3395C54.6893 21.4171 55.0391 21.55 55.3626 21.7337C55.641 21.8935 55.8832 22.1094 56.0737 22.3677C56.2626 22.6321 56.4022 22.9284 56.4857 23.2423C56.5803 23.6002 56.6263 23.9693 56.6226 24.3395L56.5886 27.8709C56.552 28.1861 56.618 28.5047 56.7769 28.7795C56.8581 28.8756 56.9613 28.9507 57.0777 28.9985C57.1942 29.0462 57.3204 29.0652 57.4457 29.0537C57.526 29.0529 57.6062 29.0472 57.6857 29.0366ZM54.8763 28.0123L54.8837 26.3109H53.3826C52.9329 26.2987 52.4836 26.3448 52.0457 26.448C51.7598 26.4926 51.5021 26.6458 51.3264 26.8758C51.1507 27.1058 51.0706 27.3947 51.1029 27.6823C51.0962 27.9195 51.1555 28.154 51.2743 28.3595C51.3946 28.5532 51.5711 28.7057 51.7803 28.7966C52.0374 28.9063 52.3152 28.9589 52.5946 28.9509C52.839 28.9515 53.0829 28.9286 53.3229 28.8823C53.5545 28.8376 53.7793 28.7627 53.9914 28.6595C54.2044 28.5557 54.4056 28.4293 54.5914 28.2823C54.6942 28.2006 54.7898 28.1103 54.8772 28.0123M65.554 17.448L67.3023 17.208V30.1337H65.88L65.6646 29.3412C65.5363 29.4343 65.4074 29.5229 65.2794 29.6023C64.9092 29.8345 64.5081 30.0134 64.088 30.1337C63.6666 30.25 63.2312 30.3077 62.794 30.3052C62.0811 30.3251 61.377 30.1439 60.7623 29.7823C60.191 29.4277 59.7377 28.9117 59.4597 28.2995C59.1407 27.5827 58.9855 26.8038 59.0052 26.0195C58.9766 25.1109 59.1833 24.2104 59.6052 23.4052C59.9662 22.7344 60.5033 22.1748 61.1588 21.7866C61.8142 21.3985 62.5631 21.1965 63.3249 21.2023C63.7248 21.199 64.124 21.2363 64.5163 21.3137C64.8521 21.3813 65.1818 21.4759 65.5023 21.5966C65.52 21.6035 65.5363 21.6117 65.5537 21.6186L65.554 17.448ZM65.554 28.2175V22.9337C65.4643 22.9009 65.372 22.8655 65.2883 22.8389C65.0279 22.7552 64.7612 22.6921 64.4909 22.6503C64.2185 22.6096 63.9434 22.5896 63.668 22.5903C63.133 22.5757 62.6037 22.7029 62.1337 22.9589C61.7017 23.2087 61.3574 23.5859 61.148 24.0389C60.9024 24.5972 60.7852 25.2035 60.8052 25.8132C60.7861 26.4083 60.8912 27.0009 61.1137 27.5532C61.2912 27.9837 61.604 28.3447 62.0049 28.5817C62.4359 28.8151 62.9209 28.9304 63.4109 28.916C63.8308 28.9053 64.2457 28.8212 64.6366 28.6675C64.9554 28.5455 65.2623 28.3946 65.5537 28.2169M71.4763 17.628C71.2985 17.5193 71.0936 17.4628 70.8852 17.4652C70.674 17.4635 70.4665 17.5199 70.2852 17.628C70.1064 17.7327 69.9563 17.8799 69.8483 18.0566C69.7394 18.2345 69.683 18.4395 69.6854 18.648C69.6835 18.8592 69.7399 19.0668 69.8483 19.248C69.9531 19.4275 70.1042 19.5755 70.2857 19.6766C70.4688 19.7797 70.6757 19.8329 70.8857 19.8309C71.0931 19.8335 71.2973 19.7802 71.4769 19.6766C71.6535 19.5748 71.7988 19.4266 71.8972 19.248C72.0001 19.0649 72.0533 18.8581 72.0514 18.648C72.0538 18.4406 72.0005 18.2364 71.8972 18.0566C71.7955 17.8806 71.6509 17.7332 71.4769 17.628M69.9769 30.1337H71.7257V21.2195L69.9769 21.4766V30.1337ZM82.68 25.6595C82.7014 26.5178 82.5038 27.3674 82.106 28.1283C81.7389 28.8093 81.182 29.369 80.5029 29.7395C79.7755 30.1268 78.9611 30.3216 78.1372 30.3052C77.3501 30.3221 76.5716 30.1392 75.8743 29.7737C75.2265 29.4234 74.7026 28.8816 74.3743 28.2223C74.0087 27.4671 73.8295 26.6353 73.8514 25.7966C73.83 24.9513 74.0216 24.1141 74.4086 23.3623C74.7648 22.6922 75.3064 22.1387 75.9686 21.768C76.6898 21.3991 77.4879 21.2053 78.298 21.2023C79.1081 21.1994 79.9075 21.3873 80.6314 21.7509C81.2792 22.107 81.8071 22.6468 82.1486 23.3023C82.517 24.0323 82.6995 24.842 82.68 25.6595ZM80.8629 25.6937C80.8675 25.2631 80.8157 24.8337 80.7086 24.4166C80.6185 24.06 80.4583 23.7249 80.2374 23.4309C80.0301 23.1604 79.7591 22.9455 79.4486 22.8052C79.0939 22.6545 78.711 22.5814 78.3257 22.5909C77.8322 22.5772 77.3439 22.6956 76.9114 22.9337C76.507 23.1738 76.1867 23.5331 75.9943 23.9623C75.7595 24.5084 75.6483 25.0997 75.6686 25.6937C75.6499 26.3044 75.7609 26.912 75.9943 27.4766C76.1702 27.9183 76.4794 28.2943 76.8787 28.5524C77.2781 28.8104 77.7479 28.9377 78.2229 28.9166C78.7033 28.9253 79.1772 28.8039 79.5943 28.5652C80.0093 28.3137 80.3358 27.9392 80.5283 27.4937C80.7685 26.925 80.8829 26.3109 80.8629 25.6937Z" fill="#9FDAF5"/>
</svg>

<svg xmlns="http://www.w3.org/2000/svg" viewBox="0 0 84 31"><path fill="#fff" d="M0 12.997v-12h3.937v12H0Zm9.294-10.09 2.264 10.09H7.25l-2.704-12h2.417a2.276 2.276 0 0 1 1.513.55c.42.346.71.826.819 1.36Zm2.855 10.09v-12h3.938v12h-3.938Zm6.912-7.436a2.382 2.382 0 0 1-2.4-2.4 2.301 2.301 0 0 1 .321-1.2 2.41 2.41 0 0 1 3.278-.862c.356.21.653.506.862.862.215.363.326.778.321 1.2a2.35 2.35 0 0 1-.321 1.208 2.4 2.4 0 0 1-.862.87 2.302 2.302 0 0 1-1.2.322Zm2.99 7.436v-12h3.938v12h-3.937Zm8.923-5.442c.01.011.095.15.253.414s.364.602.617 1.014a313.388 313.388 0 0 1 1.597 2.62c.247.41.529.876.845 1.394H29.96c-.27-.44-.516-.837-.736-1.192-.22-.355-.453-.738-.7-1.15-.248-.41-.493-.81-.736-1.199-.242-.389-.45-.73-.625-1.022-.175-.293-.296-.49-.363-.592a1.747 1.747 0 0 1-.287-.845c.016-.29.11-.57.27-.811.067-.113.191-.313.371-.6a182.106 182.106 0 0 0 1.37-2.23l.7-1.159.736-1.2h4.326l-3.346 5.46a1.08 1.08 0 0 0-.17.54c.012.202.082.396.203.558Z"/><path fill="#9FDAF5" d="M8.032 25.368c.14.42.206.86.197 1.303a3.795 3.795 0 0 1-.352 1.723c-.227.455-.57.842-.994 1.123-.454.296-.96.506-1.491.617-.6.129-1.212.192-1.826.188-.274 0-.546-.011-.814-.034a12.843 12.843 0 0 1-.806-.094c-.28-.043-.558-.1-.831-.172-.302-.079-.6-.173-.892-.282L0 28.041c.274.103.563.203.866.3.303.098.614.18.934.249.32.069.64.123.96.163.307.04.616.06.926.06.318.003.636-.02.951-.069.258-.039.509-.114.746-.223.21-.097.396-.237.548-.411.152-.176.268-.38.343-.6.085-.254.125-.52.12-.789a1.91 1.91 0 0 0-.128-.737 1.445 1.445 0 0 0-.351-.514 2.233 2.233 0 0 0-.54-.36 4.319 4.319 0 0 0-.712-.265 16.4 16.4 0 0 0-.857-.215c-.378-.08-.746-.177-1.106-.291a6.314 6.314 0 0 1-1.003-.412 3.305 3.305 0 0 1-.822-.6 2.478 2.478 0 0 1-.558-.865 3.325 3.325 0 0 1-.197-1.209 3.487 3.487 0 0 1 .317-1.543c.208-.43.52-.801.909-1.08a4.071 4.071 0 0 1 1.397-.634 7.285 7.285 0 0 1 1.8-.206c.297 0 .588.014.874.043.282.028.562.07.84.128a9.9 9.9 0 0 1 .814.206c.264.078.52.182.763.309l-.24 1.508a4.31 4.31 0 0 0-.677-.3 6.55 6.55 0 0 0-.763-.214 7.856 7.856 0 0 0-1.611-.171 6.022 6.022 0 0 0-.883.06 2.54 2.54 0 0 0-.711.206c-.198.091-.38.213-.54.36a1.306 1.306 0 0 0-.343.522 2.054 2.054 0 0 0-.112.703c-.005.23.032.46.112.677.071.185.186.35.334.48.158.137.334.253.523.343.22.104.45.187.686.248.257.069.534.137.83.206.39.08.766.177 1.132.291.357.111.704.252 1.038.42.318.16.607.372.857.626.253.264.446.58.565.926m9.935 3.669c.099-.014.197-.037.291-.069l-.188 1.149c-.064.024-.13.045-.198.06l-.248.06a1.587 1.587 0 0 1-.283.043 5.417 5.417 0 0 1-.3.008 2.503 2.503 0 0 1-.977-.18 1.382 1.382 0 0 1-.669-.583 1.622 1.622 0 0 1-.185-.505 4.578 4.578 0 0 1-.338.36 3.344 3.344 0 0 1-1.08.685c-.463.17-.954.251-1.448.24-.527.019-1.05-.1-1.517-.343a2.254 2.254 0 0 1-.909-.9 2.508 2.508 0 0 1-.3-1.208c-.002-.45.133-.89.386-1.26a2.853 2.853 0 0 1 1.174-.952 5.322 5.322 0 0 1 1.989-.445l2.004-.136.001-.43a3.24 3.24 0 0 0-.102-.866 1.364 1.364 0 0 0-.343-.608 1.499 1.499 0 0 0-.66-.36 3.85 3.85 0 0 0-1.037-.12c-.229 0-.46.008-.695.025-.239.018-.476.05-.711.095a9.848 9.848 0 0 0-1.56.429l.206-1.458c.294-.117.594-.217.9-.3.329-.089.664-.155 1.003-.197a8.419 8.419 0 0 1 1.08-.069c.455-.005.909.041 1.354.137.364.078.713.211 1.037.395.278.16.52.375.712.634.188.264.327.56.41.874.096.358.142.727.138 1.098l-.034 3.53c-.037.316.03.635.188.91a.783.783 0 0 0 .669.274c.08-.001.16-.007.24-.017Zm-2.81-1.025.008-1.701h-1.5c-.45-.012-.9.034-1.338.137-.28.06-.534.21-.72.429-.161.236-.24.52-.223.805-.007.238.052.472.171.678.12.193.297.346.506.437.257.11.535.162.814.154.245 0 .489-.022.729-.069.232-.045.456-.12.668-.223.213-.103.415-.23.6-.377.103-.081.199-.172.286-.27m.803-10.89H14.11l-1.458 3.069h1.338l1.971-3.069Zm15.772 4.44a2.985 2.985 0 0 0-1.526-.36 4.014 4.014 0 0 0-1.354.232c-.442.158-.858.38-1.235.66-.213.158-.416.33-.608.514a2.148 2.148 0 0 0-.883-1.029 3.023 3.023 0 0 0-1.543-.36c-.458 0-.913.078-1.345.231a4.869 4.869 0 0 0-1.603.938v-1.169l-1.749.258v8.657h1.749v-6.52c.206-.136.42-.257.642-.363a4.43 4.43 0 0 1 .85-.3c.268-.067.544-.101.822-.103.254-.008.508.036.745.129.197.083.37.212.506.377.149.19.252.414.3.651.067.307.098.62.094.934v5.195h1.749v-5.555a6.912 6.912 0 0 0-.066-.98c.198-.13.403-.25.614-.357.268-.134.55-.238.84-.308a3.59 3.59 0 0 1 .84-.103c.252-.006.503.038.738.128.2.082.376.212.514.378.149.19.252.414.3.651.067.307.098.62.094.934v5.212h1.749v-5.572a4.975 4.975 0 0 0-.309-1.902 2.208 2.208 0 0 0-.925-1.098Zm5.322-3.934a1.11 1.11 0 0 0-.591-.163 1.153 1.153 0 0 0-.6.163c-.179.105-.33.252-.437.429a1.178 1.178 0 0 0 .437 1.62 1.2 1.2 0 0 0 .6.154c.207.003.412-.05.591-.154.177-.102.322-.25.42-.429a1.2 1.2 0 0 0 .155-.6 1.157 1.157 0 0 0-.155-.591 1.207 1.207 0 0 0-.42-.429Zm-1.5 12.506h1.749v-8.915l-1.749.258v8.657Zm12.052-8.803c-.32.086-.627.219-.91.394a4.477 4.477 0 0 0-.805.643c-.04.04-.08.085-.12.128V21.22l-1.748.257v8.657h1.748v-6.477a4.411 4.411 0 0 1 .934-.5c.178-.069.358-.129.54-.18a3.659 3.659 0 0 1 1.2-.129l.206-1.612a3.276 3.276 0 0 0-1.045.095m10.08 7.706a1.5 1.5 0 0 0 .29-.069l-.188 1.149c-.064.025-.13.045-.197.06a11.22 11.22 0 0 0-.248.06 1.593 1.593 0 0 1-.283.043 5.379 5.379 0 0 1-.3.008 2.499 2.499 0 0 1-.977-.18 1.381 1.381 0 0 1-.669-.583 1.614 1.614 0 0 1-.185-.505 4.709 4.709 0 0 1-.338.36c-.312.295-.679.528-1.08.685-.463.17-.955.251-1.448.24-.527.018-1.05-.1-1.517-.343a2.252 2.252 0 0 1-.909-.9 2.508 2.508 0 0 1-.3-1.208c-.003-.45.132-.89.386-1.26a2.846 2.846 0 0 1 1.174-.952 5.321 5.321 0 0 1 1.989-.445l2.003-.136.002-.43a3.24 3.24 0 0 0-.103-.866c-.059-.23-.177-.439-.343-.608a1.5 1.5 0 0 0-.66-.36 3.84 3.84 0 0 0-1.037-.12c-.228 0-.46.008-.694.025-.239.018-.476.05-.711.095a9.687 9.687 0 0 0-1.56.429l.205-1.458c.294-.117.595-.217.9-.3a7.4 7.4 0 0 1 1.003-.197 8.422 8.422 0 0 1 1.08-.069c.455-.005.91.041 1.354.137.364.078.714.211 1.038.395.278.16.52.375.71.634.19.264.33.56.413.874.094.358.14.727.137 1.098l-.034 3.53c-.037.316.029.635.188.91a.783.783 0 0 0 .669.274c.08-.001.16-.007.24-.017Zm-2.81-1.025.008-1.701h-1.501a5.212 5.212 0 0 0-1.337.137 1.123 1.123 0 0 0-.943 1.234 1.28 1.28 0 0 0 .171.678c.12.193.297.346.506.437.257.11.535.162.815.154.244 0 .488-.022.728-.069.231-.044.456-.12.668-.223a3.29 3.29 0 0 0 .6-.377c.103-.081.199-.172.286-.27m10.677-10.564 1.748-.24v12.926H65.88l-.215-.793a6.462 6.462 0 0 1-.386.261c-.37.232-.77.411-1.191.532a4.761 4.761 0 0 1-1.294.171 3.798 3.798 0 0 1-2.032-.523A3.4 3.4 0 0 1 59.46 28.3a5.281 5.281 0 0 1-.455-2.28 5.275 5.275 0 0 1 .6-2.614 4.187 4.187 0 0 1 3.72-2.203 5.903 5.903 0 0 1 2.177.395c.018.006.034.015.052.022v-4.171Zm0 10.77v-5.284c-.09-.033-.182-.069-.266-.095a5.206 5.206 0 0 0-1.62-.249 3.035 3.035 0 0 0-1.534.369c-.432.25-.777.627-.986 1.08a4.075 4.075 0 0 0-.343 1.774c-.019.595.086 1.188.309 1.74.177.43.49.792.89 1.029a2.78 2.78 0 0 0 1.407.334 3.6 3.6 0 0 0 1.226-.248c.318-.122.625-.273.917-.451m5.922-10.589a1.109 1.109 0 0 0-.59-.163 1.153 1.153 0 0 0-.6.163 1.255 1.255 0 0 0-.438.429 1.108 1.108 0 0 0-.163.591c-.002.211.055.419.163.6a1.2 1.2 0 0 0 1.037.583c.208.003.412-.05.592-.154.176-.102.322-.25.42-.429.103-.183.156-.39.154-.6a1.16 1.16 0 0 0-.154-.591 1.206 1.206 0 0 0-.42-.429m-1.5 12.506h1.749v-8.915l-1.75.258v8.657ZM82.68 25.66a5.057 5.057 0 0 1-.574 2.468 3.995 3.995 0 0 1-1.603 1.611 4.83 4.83 0 0 1-2.366.566 4.659 4.659 0 0 1-2.263-.531 3.576 3.576 0 0 1-1.5-1.552 5.252 5.252 0 0 1-.523-2.425 5.04 5.04 0 0 1 .558-2.435 3.954 3.954 0 0 1 1.56-1.594 5.157 5.157 0 0 1 4.662-.017 3.745 3.745 0 0 1 1.518 1.551c.368.73.55 1.54.531 2.358Zm-1.817.034c.005-.43-.047-.86-.154-1.277a2.771 2.771 0 0 0-.472-.986 2.065 2.065 0 0 0-.788-.626 2.701 2.701 0 0 0-1.123-.214 2.773 2.773 0 0 0-1.415.343c-.404.24-.724.6-.917 1.028a4.035 4.035 0 0 0-.325 1.732 4.32 4.32 0 0 0 .325 1.783 2.29 2.29 0 0 0 2.229 1.44c.48.008.954-.113 1.371-.352.415-.251.742-.626.934-1.071.24-.569.355-1.183.335-1.8Z"/></svg>
